!!!COM: Music21
!!!OTL: Foliada de Viascón
!!!OMV: pezas_foliadas_foliada-de-viascon_foliada-de-viascon-partitura.musicxml
**kern
*part1
*staff1
*I"Bagpipes
*I'Bag
*clefG^2
*k[]
*M3/4
=1
!LO:TX:a:t=Prestissimo
*MM200
!LO:TX:a:t=[quarter]=200
4r
8ggL
8aaJ
8ggL
8ffJ
=||
8eeL
8ffJ
8ggL
8aaJ
[4gg
=
4gg]
8ggL
8aaJ
8ggL
8ffJ
=
8eeL
8ffJ
8ggL
8aaJ
[4ff
=
4ff]
8ffL
8ggJ
8ffL
8eeJ
=
8ddL
8eeJ
8ffL
8ggJ
[4ff
=
4ff]
8ffL
8ggJ
8ffL
8eeJ
!!linebreak:original
=
8ddL
8eeJ
8ffL
8ggJ
[4ee
!!linebreak:original
=
4ee]
8ggL
8aaJ
8ggL
8ffJ
=||
8eeL
8ffJ
8ggL
8aaJ
[4gg
=
4gg]
8ggL
8aaJ
8ggL
8ffJ
=
8eeL
8ffJ
8ggL
8aaJ
[4ff
=
4ff]
8ffL
8ggJ
8ffL
8eeJ
=
8ddL
8eeJ
8ffL
8ggJ
[4ff
=
4ff]
8ffL
8ggJ
8ffL
8eeJ
=
8ddL
8eeJ
8ffL
8ggJ
[4ee
!!linebreak:original
=
2.ee_
=
2.ee_
=||
4ee]
4cc
4dd
=
4ee
4dd
4ee
=
4gg
4ff
4dd
=
8eeL
8ffJ
8eeL
8ddJ
[4cc
=
4cc]
4ff
4ee
=
4dd
4b
4cc
=
4dd
4ee
4dd
!!linebreak:original
=
4b
12ddL
12ee
12ddJ
[4cc
=
4cc]
4cc
4dd
=||
4ee
4dd
4ee
=
4gg
4ff
4dd
=
8eeL
8ffJ
8eeL
8ddJ
[4cc
=
4cc]
4ff
4ee
=
4dd
4b
4cc
=
4dd
4ee
4dd
=
4b
12ddL
12ee
12ddJ
[4cc
=
4cc]
4cc
4dd
!!linebreak:original
=||
4ee
4dd
4ee
=
4gg
4ff
4dd
!!pagebreak:original
=
8eeL
8ffJ
8eeL
8ddJ
[4cc
=
4cc]
8ffL
8ffJ
8ffL
8eeJ
=
4dd
4b
4cc
=
4dd
8eeL
8ffJ
8eeL
8ddJ
=
4b
12ddL
12ee
12ddJ
[4cc
=
2.cc_
=
2.cc_
=||
4cc]
4gg
4gg
!!linebreak:original
=||
4ee
4gg
[4ee
=
4ee]
4gg
4gg
=
4ee
4ff
[4dd
=
4dd]
4ff
4ff
=
4dd
4ff
4dd
=
4dd
4gg
4ff
=
4ee
4dd
[4ee
=
4ee]
4gg
4gg
!!linebreak:original
=||
4ee
4gg
[4ee
=
4ee]
4gg
4gg
=
4ee
4ff
[4dd
=
4dd]
4ff
4ff
=
4dd
4ff
4dd
=
4dd
4gg
4ff
=
4ee
4dd
[4cc
=
2.cc_
=
2.cc_
=
4cc]
8ggL
8aaJ
8ggL
8ffJ
!!linebreak:original
=||
4ee
4dd
[4cc
=
2.cc_
=
2.cc_
=
4cc]
2r
==
*-
!!!system-decoration: s1,s2
